svg/weather/clouds_line.svg

<?xml version="1.0" encoding="UTF-8"?>
<svg width="24px" height="24px" viewBox="0 0 24 24" version="1.1" xmlns="http://www.w3.org/2000/svg" xmlns:xlink="http://www.w3.org/1999/xlink">
    <title>clouds_line</title>
    <g id="Icon" stroke="none" stroke-width="1" fill="none" fill-rule="evenodd">
        <g id="Weather" transform="translate(-145.000000, -192.000000)">
            <g id="clouds_line" transform="translate(145.000000, 192.000000)">
                <path d="M24,0 L24,24 L0,24 L0,0 L24,0 Z M12.5935,23.2578 L12.5819,23.2595 L12.5109,23.295 L12.4919,23.2987 L12.4767,23.295 L12.4057,23.2595 C12.3958,23.2564 12.387,23.259 12.3821,23.2649 L12.378,23.2758 L12.3609,23.7031 L12.3659,23.7235 L12.3769,23.7357 L12.4805,23.8097 L12.4953,23.8136 L12.5071,23.8097 L12.6107,23.7357 L12.6233,23.7197 L12.6267,23.7031 L12.6096,23.2758 C12.6076,23.2657 12.601,23.2593 12.5935,23.2578 Z M12.8584,23.1453 L12.8445,23.1473 L12.6598,23.2397 L12.6499,23.2499 L12.6472,23.2611 L12.6651,23.6906 L12.6699,23.7034 L12.6784,23.7105 L12.8793,23.8032 C12.8914,23.8069 12.9022,23.803 12.9078,23.7952 L12.9118,23.7812 L12.8777,23.1665 C12.8753,23.1546 12.8674,23.147 12.8584,23.1453 Z M12.143,23.1473 C12.1332,23.1424 12.1222,23.1453 12.1156,23.1526 L12.1099,23.1665 L12.0758,23.7812 C12.0751,23.7927 12.0828,23.8019 12.0926,23.8046 L12.1083,23.8032 L12.3092,23.7105 L12.3186,23.7024 L12.3225,23.6906 L12.3404,23.2611 L12.3372,23.2485 L12.3278,23.2397 L12.143,23.1473 Z" id="MingCute" fill-rule="nonzero"></path>
                <path d="M7.91094,6.91094 C8.73318,4.91015 10.7008,3.5 13,3.5 C15.3854,3.5 17.4143,5.01773 18.1771,7.13953 C20.3709,7.66911 22,9.6438 22,12 C22,14.1645 20.6254,16.0059 18.7024,16.7024 C18.0059,18.6254 16.1644,20 14,20 L6.35994,20 C3.952,20 2,18.0479 2,15.64 C2,13.8932 3.02663,12.388 4.50848,11.6918 C4.62804,9.52611 6.00014,7.6962 7.91094,6.91094 Z M10.5253,6.52475 C12.6798,6.72881 14.471,8.17534 15.1771,10.1395 C17.1436,10.6142 18.6564,12.2502 18.9487,14.2812 C19.5922,13.7306 20,12.9124 20,12 C20,10.4431 18.8133,9.16222 17.2958,9.01432 C16.8652,8.97236 16.5105,8.65833 16.4166,8.23607 C16.0685,6.67018 14.6697,5.5 13,5.5 C12.0343,5.5 11.159,5.8914 10.5253,6.52475 Z M10,8.5 C9.64472,8.5 9.30353,8.55262 8.98286,8.64981 C7.54494,9.08563 6.5,10.4221 6.5,12 C6.5,12.1019 6.50433,12.2027 6.51279,12.302 C6.55416,12.7879 6.23892,13.2328 5.76673,13.3549 C4.7499,13.6179 4,14.5426 4,15.64 C4,16.9434 5.05659,18 6.35997,18 L14,18 C15.4238,18 16.6182,17.0071 16.924,15.6749 C16.9736,15.4589 17,15.2332 17,15 C17,13.4431 15.8133,12.1622 14.2958,12.0143 C13.8652,11.9724 13.5105,11.6583 13.4166,11.2361 C13.0685,9.67018 11.6697,8.5 10,8.5 Z" id="形状" fill="#09244B"></path>
            </g>
        </g>
    </g>
</svg>

<svg xmlns="http://www.w3.org/2000/svg" width="24" height="24"><g fill="none" fill-rule="evenodd"><path d="M24 0v24H0V0h24ZM12.594 23.258l-.012.002-.071.035-.02.004-.014-.004-.071-.036c-.01-.003-.019 0-.024.006l-.004.01-.017.428.005.02.01.013.104.074.015.004.012-.004.104-.074.012-.016.004-.017-.017-.427c-.002-.01-.009-.017-.016-.018Zm.264-.113-.014.002-.184.093-.01.01-.003.011.018.43.005.012.008.008.201.092c.012.004.023 0 .029-.008l.004-.014-.034-.614c-.003-.012-.01-.02-.02-.022Zm-.715.002a.023.023 0 0 0-.027.006l-.006.014-.034.614c0 .012.007.02.017.024l.015-.002.201-.093.01-.008.003-.011.018-.43-.003-.012-.01-.01-.184-.092Z"/><path fill="#09244B" d="M7.91 6.91a5.501 5.501 0 0 1 10.267.23 5.001 5.001 0 0 1 .525 9.562A5.001 5.001 0 0 1 14 20H6.36a4.36 4.36 0 0 1-1.852-8.308A5.502 5.502 0 0 1 7.911 6.91Zm2.615-.385a5.504 5.504 0 0 1 4.652 3.614 5.005 5.005 0 0 1 3.772 4.142 3 3 0 0 0-1.653-5.267 1 1 0 0 1-.88-.778 3.502 3.502 0 0 0-5.89-1.711ZM10 8.5a3.502 3.502 0 0 0-3.487 3.802 1 1 0 0 1-.746 1.053A2.362 2.362 0 0 0 6.36 18H14a3.002 3.002 0 0 0 3-3 3 3 0 0 0-2.704-2.986 1 1 0 0 1-.88-.778A3.502 3.502 0 0 0 10 8.5Z"/></g></svg>
